icons/svg/tourist_colored/information_audioguide.svg

<?xml version="1.0" encoding="UTF-8" standalone="no"?>
<!-- Created with Inkscape (http://www.inkscape.org/) -->

<svg
   xmlns:dc="http://purl.org/dc/elements/1.1/"
   xmlns:cc="http://creativecommons.org/ns#"
   xmlns:rdf="http://www.w3.org/1999/02/22-rdf-syntax-ns#"
   xmlns:svg="http://www.w3.org/2000/svg"
   xmlns="http://www.w3.org/2000/svg"
   xmlns:sodipodi="http://sodipodi.sourceforge.net/DTD/sodipodi-0.dtd"
   xmlns:inkscape="http://www.inkscape.org/namespaces/inkscape"
   version="1.0"
   width="580"
   height="580"
   id="svg2"
   sodipodi:version="0.32"
   inkscape:version="0.91 r"
   sodipodi:docname="information_audioguide.svg"
   inkscape:output_extension="org.inkscape.output.svg.inkscape">
  <metadata
     id="metadata10">
    <rdf:RDF>
      <cc:Work
         rdf:about="">
        <dc:format>image/svg+xml</dc:format>
        <dc:type
           rdf:resource="http://purl.org/dc/dcmitype/StillImage" />
        <cc:license
           rdf:resource="http://web.resource.org/cc/PublicDomain" />
        <dc:language>en</dc:language>
        <dc:title />
      </cc:Work>
    </rdf:RDF>
  </metadata>
  <sodipodi:namedview
     inkscape:window-height="1004"
     inkscape:window-width="1920"
     inkscape:pageshadow="2"
     inkscape:pageopacity="0.0"
     guidetolerance="10.0"
     gridtolerance="10.0"
     objecttolerance="10.0"
     borderopacity="1.0"
     bordercolor="#666666"
     pagecolor="#ffffff"
     id="base"
     showgrid="false"
     inkscape:zoom="0.70710678"
     inkscape:cx="541.08202"
     inkscape:cy="270.51853"
     inkscape:window-x="1680"
     inkscape:window-y="0"
     inkscape:current-layer="svg2"
     inkscape:window-maximized="1" />
  <defs
     id="defs4">
    <inkscape:perspective
       sodipodi:type="inkscape:persp3d"
       inkscape:vp_x="0 : 290 : 1"
       inkscape:vp_y="0 : 1000 : 0"
       inkscape:vp_z="580 : 290 : 1"
       inkscape:persp3d-origin="290 : 193.33333 : 1"
       id="perspective12" />
    <style
       type="text/css"
       id="style6">
   
    .fil0 {fill:#EF7900}
   
  </style>
    <inkscape:perspective
       id="perspective6807"
       inkscape:persp3d-origin="29.116032 : 19.410688 : 1"
       inkscape:vp_z="58.232063 : 29.116032 : 1"
       inkscape:vp_y="0 : 1000 : 0"
       inkscape:vp_x="0 : 29.116032 : 1"
       sodipodi:type="inkscape:persp3d" />
  </defs>
  <g
     id="g1327">
    <path
       d="M 66.275,1.768 C 24.94,1.768 1.704,23.139 1.704,66.804 L 1.704,516.927 C 1.704,557.771 22.598,579.156 63.896,579.156 L 515.92,579.156 C 557.227,579.156 578.149,558.84 578.149,516.927 L 578.149,66.804 C 578.149,24.203 557.227,1.768 514.627,1.768 C 514.624,1.768 66.133,1.625 66.275,1.768 z"
       style="fill:#111111;stroke:#eeeeee;stroke-width:3.40799999"
       id="path1329" />
  </g>
  <path
     style="font-style:normal;font-variant:normal;font-weight:bold;font-stretch:normal;font-size:48px;line-height:100%;font-family:Garamond;-inkscape-font-specification:'Garamond Bold';text-align:start;writing-mode:lr-tb;text-anchor:start;fill:#ffffff;fill-opacity:1;stroke:none;stroke-width:1px;stroke-linecap:butt;stroke-linejoin:miter;stroke-opacity:1"
     d="m 89.140576,85.990211 c 0,-9.610323 3.11448,-17.485659 9.343666,-23.626233 6.229078,-6.139778 14.238018,-9.209836 24.026718,-9.210177 10.50037,3.41e-4 19.22122,3.248433 26.16231,9.74416 6.94099,6.496411 10.4114,13.837874 10.41164,22.024397 -2.4e-4,6.0515 -1.37949,12.102664 -4.13803,18.153482 -2.75864,6.0515 -7.11911,10.90131 -13.08108,14.54954 -5.96232,3.64869 -12.05803,5.47297 -18.28699,5.47276 -8.54292,2.1e-4 -16.41825,-3.64825 -23.626225,-10.94551 -7.208082,-7.2967 -10.812009,-16.017429 -10.812009,-26.162419 l 0,0 z M 51.76577,404.47697 51.231785,387.12436 81.39862,383.11994 c 4.449325,-1.24578 7.519384,-3.07006 9.210302,-5.47276 1.690665,-2.40258 2.536061,-7.78636 2.536061,-16.15126 l 0,-2.93656 c 0,-2.13559 0.1335,-6.00662 0.40049,-11.61287 0.266875,-5.60615 0.400384,-10.54504 0.400384,-14.81644 0,-3.38147 -0.266999,-9.87754 -0.800874,-19.48832 l 0.26701,-13.3481 -0.26701,-12.54733 0.533981,-43.51493 c -1.06e-4,-5.51705 -0.533981,-11.21226 -1.601834,-17.08562 -1.957771,-2.66945 -5.517287,-4.98308 -10.67851,-6.94098 -5.161345,-1.95755 -14.149058,-3.38137 -26.963169,-4.2714 l 0,-14.94992 c 18.331393,-1.06774 34.438136,-4.89412 48.320189,-11.4795 9.43264,-4.27118 19.66624,-11.83509 30.70085,-22.69176 l 17.88647,0 c 0.7118,22.06904 1.06773,50.72313 1.06785,85.962 l -1.86871,108.92087 c -1.2e-4,7.47496 0.35584,14.23803 1.06773,20.28918 5.51719,1.95778 14.5049,3.91545 26.96329,5.87324 4.80528,0.7119 8.63165,1.60172 11.47938,2.66956 l -0.26687,14.68295 c -4.80552,0.17803 -8.36502,0.26698 -10.67853,0.26698 -2.6698,0 -6.76318,-0.17792 -12.28035,-0.53386 -18.15358,-0.88994 -42.44719,-1.33484 -72.880893,-1.33484 -8.720741,0 -17.174597,0.3114 -25.361463,0.93435 -8.186857,0.62293 -13.793102,0.93435 -16.818624,0.93435 l 0,0 z"
     id="flowRoot6828"
     inkscape:connector-curvature="0" />
  <path
     style="fill:#ffffff"
     inkscape:connector-curvature="0"
     id="path10"
     d="m 493.19113,436.67617 c -0.34146,0 -0.67517,0.0224 -1.00543,0.0639 -1.93326,-4.25625 -6.03946,-7.20096 -10.80705,-7.20096 -1.74871,0 -3.4043,0.40441 -4.90381,1.11408 -15.72727,-59.19344 -66.44355,-102.64581 -126.41218,-102.64581 -60.03244,0 -110.79443,43.54636 -126.46304,102.83723 -1.59438,-0.8278 -3.38102,-1.3055 -5.27807,-1.3055 -4.76843,0 -8.87466,2.94471 -10.80791,7.20096 -0.33024,-0.0414 -0.66482,-0.0639 -1.00543,-0.0639 -22.9058,0 -41.47515,20.47849 -41.47515,45.74263 0,25.26501 18.56935,45.74434 41.47515,45.74434 0.43718,0 0.86316,-0.0448 1.28395,-0.10953 2.035,3.92944 5.98687,6.59563 10.52853,6.59563 6.62323,0 20.82261,-5.66893 20.87642,-12.66269 l 0,-52.46501 1.15342,0 c 0,-70.49111 44.368,-119.76398 109.7104,-119.76398 65.34154,0 109.68034,49.27287 109.68034,119.76398 l 0.75751,0 0,52.46587 c 0,6.99316 14.25493,12.66269 20.87729,12.66269 4.54253,0 8.49268,-2.66705 10.52853,-6.59564 0.41993,0.0646 0.8459,0.10954 1.28395,0.10954 22.9058,0 41.47515,-20.47932 41.47515,-45.74433 0.003,-25.26501 -18.56677,-45.7435 -41.47257,-45.7435 z"
     sodipodi:nodetypes="scscscscssscssccsccsscscs" />
</svg>

<svg width="580" height="580" viewBox="0 0 580 580" fill="none" xmlns="http://www.w3.org/2000/svg">
<g clip-path="url(#clip0)">
<path d="M66.275 1.76799C24.94 1.76799 1.70398 23.139 1.70398 66.804V516.927C1.70398 557.771 22.598 579.156 63.896 579.156H515.92C557.227 579.156 578.149 558.84 578.149 516.927V66.804C578.149 24.203 557.227 1.76799 514.627 1.76799C514.624 1.76799 66.133 1.62499 66.275 1.76799Z" fill="#111111" stroke="#EEEEEE" stroke-width="3.408"/>
<path d="M89.1406 85.9902C89.1406 76.3799 92.2551 68.5046 98.4843 62.364C104.713 56.2242 112.722 53.1541 122.511 53.1538C133.011 53.1541 141.732 56.4022 148.673 62.898C155.614 69.3944 159.085 76.7358 159.085 84.9224C159.085 90.9739 157.705 97.025 154.947 103.076C152.188 109.127 147.828 113.977 141.866 117.625C135.904 121.274 129.808 123.098 123.579 123.098C115.036 123.098 107.161 119.45 99.9526 112.153C92.7445 104.856 89.1406 96.1352 89.1406 85.9902V85.9902ZM51.7658 404.477L51.2318 387.124L81.3986 383.12C85.848 381.874 88.918 380.05 90.609 377.647C92.2996 375.245 93.145 369.861 93.145 361.496V358.559C93.145 356.424 93.2785 352.553 93.5455 346.947C93.8124 341.34 93.9459 336.401 93.9459 332.13C93.9459 328.749 93.6789 322.253 93.145 312.642L93.412 299.294L93.145 286.746L93.679 243.231C93.6789 237.714 93.145 232.019 92.0772 226.146C90.1194 223.476 86.5599 221.163 81.3986 219.205C76.2373 217.247 67.2496 215.823 54.4355 214.933V199.983C72.7669 198.916 88.8736 195.089 102.756 188.504C112.188 184.233 122.422 176.669 133.457 165.812H151.343C152.055 187.881 152.411 216.535 152.411 251.774L150.542 360.695C150.542 368.17 150.898 374.933 151.61 380.984C157.127 382.942 166.115 384.9 178.573 386.857C183.378 387.569 187.205 388.459 190.053 389.527L189.786 404.21C184.98 404.388 181.421 404.477 179.107 404.477C176.437 404.477 172.344 404.299 166.827 403.943C148.673 403.053 124.38 402.608 93.9459 402.608C85.2251 402.608 76.7713 402.92 68.5844 403.543C60.3976 404.166 54.7913 404.477 51.7658 404.477V404.477Z" fill="white"/>
<path d="M493.191 436.676C492.85 436.676 492.516 436.699 492.186 436.74C490.252 432.484 486.146 429.539 481.379 429.539C479.63 429.539 477.974 429.944 476.475 430.653C460.748 371.46 410.031 328.007 350.063 328.007C290.03 328.007 239.268 371.554 223.6 430.845C222.005 430.017 220.219 429.539 218.322 429.539C213.553 429.539 209.447 432.484 207.514 436.74C207.183 436.699 206.849 436.676 206.508 436.676C183.602 436.676 165.033 457.155 165.033 482.419C165.033 507.684 183.602 528.163 206.508 528.163C206.945 528.163 207.371 528.118 207.792 528.054C209.827 531.983 213.779 534.649 218.321 534.649C224.944 534.649 239.143 528.98 239.197 521.987V469.522H240.351C240.351 399.03 284.719 349.758 350.061 349.758C415.402 349.758 459.741 399.03 459.741 469.522H460.499V521.987C460.499 528.981 474.754 534.65 481.376 534.65C485.919 534.65 489.869 531.983 491.905 528.054C492.325 528.119 492.75 528.164 493.189 528.164C516.094 528.164 534.664 507.685 534.664 482.42C534.667 457.155 516.097 436.676 493.191 436.676V436.676Z" fill="white"/>
</g>
<defs>
<clipPath id="clip0">
<path d="M0 0H580V580H0V0Z" fill="white"/>
</clipPath>
</defs>
</svg>
